proprietary/assets/icons/lichaam/hoofd-met-schedel.svg

<svg height="64" viewBox="0 0 64 64" width="64" xmlns="http://www.w3.org/2000/svg"><path d="m0 0h64v64h-64z" fill="none"/><path d="m30.5 27c-.7 0-1.9 1.8-1.4 2.5.4.7 2.3.6 2.7 0 .6-.7-.6-2.5-1.3-2.5zm-3.4-4.9c-1.7.2-2.1 1.2-1.9 2.3.2 1.2.8 1.8 2.2 1.6 1.5-.2 2-1.1 2-2.1-.1-1.4-.8-2-2.3-1.8zm6.8 0c-1.5-.2-2.2.5-2.3 1.8 0 1.1.4 1.9 2 2.1 1.3.2 2.1-.4 2.2-1.6.1-1.1-.3-2.1-1.9-2.3zm22 10.4-6.2-7.1c-.2-.9.1-2.6 0-3.3-.7-3.9-2.7-8.2-2.7-8.2 2.1-4 1.1-7.2-2.1-9.2-3.6-2.3-16.8-2.6-26.4 2.7-10.1 5.5-9 15.4-7.3 20.5 2 6 7.9 14.5 8.3 20.9.2 2.8-1.9 11.3-1.9 11.3h22.4l-.1-6-5.5-2.8c-.3-.2-.2-.4-.2-.4s8.2 1.8 11.4 2.2 6.3-2.3 6.3-6.2c0-4.3 0-9.7 0-9.7l3.3-1.8c1-.7 1.3-2 .7-2.9zm-21.1-3.1c-.1.6.1 1.9-.7 3.2s-2.1 1.4-3.6 1.4-2.8-.1-3.6-1.4-.6-2.7-.7-3.2c-2.7-1.5-3.8-4.2-3.2-8.5 1.1-8 13.9-8 15 0 .6 4.3-.5 7-3.2 8.5z"/></svg>

<?xml version="1.0" encoding="utf-8"?>
<!-- Generator: Adobe Illustrator 21.0.2, SVG Export Plug-In . SVG Version: 6.00 Build 0)  -->
<svg version="1.2" baseProfile="tiny" xmlns="http://www.w3.org/2000/svg" xmlns:xlink="http://www.w3.org/1999/xlink" x="0px"
	 y="0px" width="64px" height="64px" viewBox="0 0 64 64" xml:space="preserve">
<g id="Box">
	<rect fill="none" width="64" height="64"/>
</g>
<g id="Icon">
	<g>
		<path d="M30.5,27c-0.7,0-1.9,1.8-1.4,2.5c0.4,0.7,2.3,0.6,2.7,0C32.4,28.8,31.2,27,30.5,27z M27.1,22.1c-1.7,0.2-2.1,1.2-1.9,2.3
			c0.2,1.2,0.8,1.8,2.2,1.6c1.5-0.2,2-1.1,2-2.1C29.3,22.5,28.6,21.9,27.1,22.1z M33.9,22.1c-1.5-0.2-2.2,0.5-2.3,1.8
			c0,1.1,0.4,1.9,2,2.1c1.3,0.2,2.1-0.4,2.2-1.6C35.9,23.3,35.5,22.3,33.9,22.1z M55.9,32.5l-6.2-7.1c-0.2-0.9,0.1-2.6,0-3.3
			C49,18.2,47,13.9,47,13.9c2.1-4,1.1-7.2-2.1-9.2c-3.6-2.3-16.8-2.6-26.4,2.7c-10.1,5.5-9,15.4-7.3,20.5c2,6,7.9,14.5,8.3,20.9
			c0.2,2.8-1.9,11.3-1.9,11.3H40l-0.1-6l-5.5-2.8c-0.3-0.2-0.2-0.4-0.2-0.4c0,0,8.2,1.8,11.4,2.2c3.2,0.4,6.3-2.3,6.3-6.2
			c0-4.3,0-9.7,0-9.7l3.3-1.8C56.2,34.7,56.5,33.4,55.9,32.5z M34.8,29.4c-0.1,0.6,0.1,1.9-0.7,3.2c-0.8,1.3-2.1,1.4-3.6,1.4
			s-2.8-0.1-3.6-1.4c-0.8-1.3-0.6-2.7-0.7-3.2c-2.7-1.5-3.8-4.2-3.2-8.5c1.1-8,13.9-8,15,0C38.6,25.2,37.5,27.9,34.8,29.4z"/>
	</g>
</g>
</svg>
